Catalina-light/actions/22/quickopen-file.svg

<svg viewBox="0 0 22 22" xmlns="http://www.w3.org/2000/svg">
<defs>
<style id="current-color-scheme" type="text/css">.ColorScheme-Text {
        color:#4d4d4d
      }</style>
</defs>
<path class="ColorScheme-Text" d="m4.5996 3c-0.4432 0-0.79883 0.35758-0.79883 0.80078v14.398c0 0.4432 0.35563 0.80078 0.79883 0.80078h12.801c0.4432 0 0.79883-0.35758 0.79883-0.80078v-14.398c0-0.4432-0.35563-0.80078-0.79883-0.80078h-12.801zm7.4277 3-0.71875 3.5 2.7734 1.5-4.1094 5 0.71875-3.5-2.7734-1.5 4.1094-5z" fill="currentColor"/>
</svg>

<svg xmlns="http://www.w3.org/2000/svg" viewBox="0 0 22 22">
  <defs id="defs3051">
    <style type="text/css" id="current-color-scheme">
      .ColorScheme-Text {
        color:#4d4d4d
      }
      </style>
  </defs>
 <path 
     style="fill:currentColor;fill-opacity:1;stroke:none"      
	 class="ColorScheme-Text"
        d="M 4.59961,3 C 4.15641,3 3.80078,3.35758 3.80078,3.80078 l 0,14.39844 C 3.80078,18.64242 4.15641,19 4.59961,19 l 12.80078,0 c 0.4432,0 0.79883,-0.35758 0.79883,-0.80078 l 0,-14.39844 C 18.19922,3.35758 17.84359,3 17.40039,3 L 4.59961,3 Z M 12.02734,6 11.30859,9.5 14.08203,11 9.97265,16 10.6914,12.5 7.91797,11 12.02734,6 Z"
     />
</svg>
